X: 271
T: Fengjian jiading
L: 1/16
M: 2/4
K: F
c2 c c B2 A c [I:setbarnb 1]| 
f2 e dc4 | 
f2 e d c2 c d | 
F2 E DG4 | 
G2 G A f2 d c | 
c E G A2< C2 D | 
F2 F A G F E D | 
C8 |]

@@@ Tune index: 9145
